**kern	**kern
*staff2	*staff1
*clefF4	*clefG2
*k[b-]	*k[b-]
*met(c)	*met(c)
*F:	*F:
=-	=-
4C' 4c'	4r
=73	=73
4F' 4f'	4r
4E' 4e'	(24ccLL
.	24dd
.	24ccJ
.	16bL
.	16ccJJ
4D' 4d'	4ff')
4C' 4c'	4ee'
=74	=74
4F' 4f'	4dd'
4E' 4e'	(24ccLL
.	24dd
.	24ccJ
.	16bL
.	16ccJJ
4D' 4d'	[4ff)
4C'	16ffLL]
.	16ee
.	16dd
.	16ccJJ
=75	=75
4FF' 4F'	16ddLL
.	16cc
.	16b-
.	16aJJ
4GG' 4G'	16ccLL
.	16b-
.	16dd
.	16b-JJ
4AA' 4A'	16b-LL
.	16a
.	16cc
.	16aJJ
4BB-' 4B-'	16aLL
.	16g
.	16b-
.	16gJJ
=76	=76
*	*^
2C 2c	8f'L	2r
.	8g'	.
.	8a'	.
.	8b-'J	.
2C 2G	(4cc	2b-
.	8dd'L)	.
.	8ee'J	.
*	*v	*v
=77	=77
8F'L	4a 4ff
8G'	.
8A'	4r
8B-'J	.
(4c	(2b- 2cc
8d'L)	.
8e'J	.
=78	=78
*^	*
4f	8FF'L	4a)
.	8GG'	.
4r	8AA'	4r
.	8BB-'J	.
2r	(4C	(2B- 2c
.	8D'L)	.
.	8E'J	.
*v	*v	*
=79	=79
4FF 4F	4A)
4r	4r
4r	4r
*-	*-
